packages/web-icons/svgs/new_3.svg

<svg viewBox="0 0 88 36" xmlns="http://www.w3.org/2000/svg" class="ridi_icon"><path d="M69.6 0H18.3C8.4 0 .3 8.1.3 18s8.1 18 18 18h51.4c9.9 0 18-8.1 18-18-.1-9.9-8.2-18-18.1-18zm-40 27.2h-4.4l-3.4-8.5c-.5-1.2-.9-3.2-.9-3.2s-.2 1.9-.5 3.2l-1.7 8.6h-4.5l3.6-18.5h4.4l3.4 8.5c.5 1.2.9 3.2.9 3.2s.1-1.9.5-3.2l1.6-8.5h4.5l-3.5 18.4zm18.6-14.6h-7l-.6 3.3h5.6l-.8 3.9h-5.7l-.7 3.4h7.4l-.8 3.9H33.8l3.6-18.4h11.5l-.7 3.9zm19.6 14.6h-5.2l-.6-9.4v-2.1s-.3 1-.8 2.1l-4.1 9.3h-5.2L50.7 8.8h4.7l.3 11.5v1.9s.1-.8.6-1.9l5.1-11.5h3.8l.5 11.5v1.9s.2-.9.6-1.9L71 8.8h4.9l-8.1 18.4z"/></svg>

<?xml version="1.0" encoding="UTF-8"?>
<svg width="88px" height="36px" viewBox="0 0 88 36" version="1.1" xmlns="http://www.w3.org/2000/svg">
  <!-- Generator: Sketch 41.2 (35397) - http://www.bohemiancoding.com/sketch -->
  <title>new_3</title>
  <desc>Created with Sketch.</desc>
  <defs></defs>
  <g id="Page-1" stroke="none" stroke-width="1" fill="none" fill-rule="evenodd">
    <g id="new_3" fill="#000000">
      <g id="레이어_1">
        <path d="M69.6,0 L18.3,0 C8.4,0 0.3,8.1 0.3,18 L0.3,18 C0.3,27.9 8.4,36 18.3,36 L69.7,36 C79.6,36 87.7,27.9 87.7,18 L87.7,18 C87.6,8.1 79.5,0 69.6,0 Z M29.6,27.2 L25.2,27.2 L21.8,18.7 C21.3,17.5 20.9,15.5 20.9,15.5 L20.9,15.5 C20.9,15.5 20.7,17.4 20.4,18.7 L18.7,27.3 L14.2,27.3 L17.8,8.8 L22.2,8.8 L25.6,17.3 C26.1,18.5 26.5,20.5 26.5,20.5 L26.5,20.5 C26.5,20.5 26.6,18.6 27,17.3 L28.6,8.8 L33.1,8.8 L29.6,27.2 L29.6,27.2 Z M48.2,12.6 L41.2,12.6 L40.6,15.9 L46.2,15.9 L45.4,19.8 L39.7,19.8 L39,23.2 L46.4,23.2 L45.6,27.1 L33.8,27.1 L37.4,8.7 L48.9,8.7 L48.2,12.6 L48.2,12.6 Z M67.8,27.2 L62.6,27.2 L62,17.8 L62,15.7 L62,15.7 C62,15.7 61.7,16.7 61.2,17.8 L57.1,27.1 L51.9,27.1 L50.7,8.8 L55.4,8.8 L55.7,20.3 L55.7,22.2 L55.7,22.2 C55.7,22.2 55.8,21.4 56.3,20.3 L61.4,8.8 L65.2,8.8 L65.7,20.3 L65.7,22.2 L65.7,22.2 C65.7,22.2 65.9,21.3 66.3,20.3 L71,8.8 L75.9,8.8 L67.8,27.2 L67.8,27.2 Z" id="Shape"></path>
      </g>
    </g>
  </g>
</svg>
